X: 19
T: Xunfu de xiao qingma
L: 1/8
M: 4/4
K: C
E4G2 [I:setbarnb 1]| 
A2d d e (3e/ e/ a/ | 
e6 | 
e e/ e/g4-g (3g/ g/ c'/ | 
e2d4d c | 
c A A2<g2-g a/ c'/ | 
e dc2A4 | 
A2>d2 (3c d e | 
d4-d (3d/ d/ g/c2B,> DE2A (3G/ A/ G/ | 
[M:3/4]E6 | 
[M:4/4]E> G A (3c/ c/ d/d4 | 
c A A2<g2-g (3g/ g/ c'/ | 
e d c (3c/ c/ e/A4 |]

@@@ Tune index: 8687
